static/images/mobile/copyright/wikipedia-wordmark-rmy.svg

<?xml version="1.0" encoding="UTF-8"?>
<svg width="120px" height="19px" viewBox="0 0 120 19" version="1.1" xmlns="http://www.w3.org/2000/svg" xmlns:xlink="http://www.w3.org/1999/xlink">
    <title>rmy-wordmark</title>
    <g id="Page-1" stroke="none" stroke-width="1" fill="none" fill-rule="evenodd">
        <path d="M17.7074949,-3.55271368e-15 C17.7969767,0.0895173514 17.8417443,0.246141547 17.8417443,0.469872967 C17.8417443,0.684688988 17.7969767,0.832363223 17.7074949,0.912895866 C17.3584291,0.957662465 17.0451807,1.04268718 16.7677492,1.16796981 C16.4992338,1.2843357 16.2844349,1.40068517 16.1233521,1.51701822 C15.9711867,1.62443378 15.8145625,1.81685781 15.6534791,2.09429013 C15.4923644,2.36280419 15.38049,2.56417876 15.3178557,2.69841192 L15.259763,2.84308221 C15.2013096,2.98829545 15.1177493,3.19514565 15.009082,3.46363489 L9.31690788,17.4792714 C9.15579943,17.8999185 8.93652563,18.1147176 8.65908586,18.1236685 C8.3995286,18.1236685 8.18920476,17.9088695 8.02811371,17.4792714 L2.6044382,3.40993513 C2.18378801,2.33595527 1.85263989,1.66918357 1.6109927,1.40961871 C1.37829242,1.14113654 0.886045223,0.975562384 0.134249392,0.912895866 C0.0447497973,0.823413264 0,0.671264144 0,0.456447933 C0,0.241666471 0.0357998379,0.0895173514 0.107399514,-3.55271368e-15 C1.65291466,0.0320473215 2.57866424,0.0497505757 2.88465059,0.0531097628 L2.96691166,0.0536997568 C3.45915599,0.0537175135 4.56894982,0.0358175946 6.29629656,-3.55271368e-15 C6.36788984,0.0895173514 6.40368964,0.246141547 6.40369607,0.469872967 C6.40368964,0.684688988 6.36788984,0.832363223 6.29629656,0.912895866 C5.37444541,1.01136222 4.82849826,1.19931118 4.658454,1.47674331 C4.48840019,1.74525813 4.56894982,2.28673097 4.9001029,3.10116105 L9.27663306,14.2975594 L9.41088245,14.2975594 L13.7471377,3.27568478 C14.096172,2.52390346 14.1767217,1.96005697 13.9887866,1.58414283 C13.8097737,1.20826114 13.2459268,0.984512343 12.2972443,0.912895866 C12.2256324,0.841313183 12.1853577,0.693638947 12.1764199,0.469872967 C12.1764077,0.246141547 12.2166825,0.0895173514 12.2972443,-3.55271368e-15 C13.8326472,0.0318378619 14.7917271,0.0495185479 15.1744862,0.0530420581 L15.2910058,0.0536997568 C15.4341897,0.0537175135 16.2396853,0.0358175946 17.7074949,-3.55271368e-15 Z M18.8650673,5.48434237 L18.9815804,5.48464042 C19.7122817,5.48464042 21.7961337,5.4305144 21.7961337,5.4305144 L21.8231967,5.48464042 L21.8231967,6.0800267 C21.8231967,6.16121574 21.7690707,6.21534176 21.6608186,6.21534176 L21.0924954,6.27050867 C20.253542,6.35065683 19.9558488,6.56820181 19.9558488,7.11050295 L19.9558488,16.1224862 C19.9558488,16.7178724 20.226479,17.0696916 21.0924954,17.1508806 L21.6608186,17.2060475 C21.7420077,17.2060475 21.8231967,17.2591327 21.8231967,17.3673847 L21.8231967,17.935708 L21.7961337,17.9908749 C21.7961337,17.9908749 19.7393447,17.935708 18.9003913,17.935708 C18.142627,17.935708 16.031712,17.9908749 16.031712,17.9908749 L15.977586,17.935708 L15.977586,17.3673847 C15.977586,17.2591327 16.058775,17.2060475 16.1670271,17.2060475 L16.7082873,17.1508806 C17.6013667,17.0696916 17.8719969,16.6366834 17.8719969,16.1224862 L17.8719969,7.11050295 C17.8719969,6.51719844 17.5461998,6.35169771 16.7082873,6.27259044 L16.1670271,6.21638265 C16.058775,6.21638265 15.977586,6.19140141 15.977586,6.1081306 L15.977586,5.48464042 L16.004649,5.4305144 C16.004649,5.4305144 17.9607574,5.48003613 18.8650673,5.48434237 Z M27.9425602,16.1224862 C27.9425602,16.7178724 28.2943794,17.0155656 29.0792067,17.1508806 L29.3768999,17.2060475 C29.4580889,17.2320697 29.539278,17.2591327 29.539278,17.3673847 L29.539278,17.935708 L29.5122149,17.9908749 C29.5122149,17.9908749 27.8072451,17.935708 26.9953548,17.935708 C26.2375904,17.935708 24.0184234,17.9908749 24.0184234,17.9908749 L23.9642974,17.935708 L23.9642974,17.3673847 C23.9642974,17.2591327 24.0454864,17.2060475 24.1537384,17.2060475 L24.6949987,17.1508806 C25.5068891,17.0696916 25.8587082,16.6366834 25.8587082,16.1224862 L25.8587082,7.11050295 C25.8587082,6.51719844 25.5610151,6.35169771 24.6949987,6.27259044 L24.1537384,6.21638265 C24.0454864,6.21638265 23.9642974,6.19140141 23.9642974,6.1081306 L23.9642974,5.48464042 L23.9913604,5.4305144 C23.9913604,5.4305144 26.2105274,5.48464042 27.0494808,5.48464042 C27.808286,5.48464042 29.5122149,5.4305144 29.5122149,5.4305144 L29.539278,5.48464042 L29.539278,6.0800267 C29.539278,6.16121574 29.4851519,6.18827875 29.3768999,6.21534176 L29.0792067,6.27050867 C28.2402534,6.43184587 27.9425602,6.56820181 27.9425602,7.11050295 L27.9425602,11.1980587 C28.8356396,11.1980587 29.3498369,10.7400693 30.5406094,9.46602594 C31.6231299,8.27317161 32.4620833,7.27600368 32.4620833,6.75868379 C32.4620833,6.5411388 32.2185162,6.29965346 31.677256,6.21638265 C31.5690039,6.19140141 31.5148779,6.16225662 31.5148779,6.08106759 L31.5148779,5.45653653 L31.5419409,5.43155528 C31.5419409,5.43155528 33.7340449,5.48568131 34.5188723,5.48568131 C35.2225106,5.48568131 36.4132832,5.43155528 36.4132832,5.43155528 L36.4944722,5.45653653 L36.4944722,6.08106759 C36.4944722,6.16225662 36.4132832,6.21638265 36.2779681,6.21638265 C35.2225106,6.29757169 34.4918093,6.35169771 33.5175408,7.46128123 L31.1901217,10.1384377 C30.7300505,10.6276537 30.5676724,10.9232651 30.5676724,11.1408101 C30.5676724,11.3031881 30.6759245,11.4374623 30.8112396,11.5998404 L34.8977545,16.5253087 C35.2225106,16.90315 35.8720229,17.0665689 36.4132832,17.1737801 L36.5485982,17.1998022 C36.6297873,17.2258244 36.7380393,17.2799504 36.7380393,17.3611394 L36.7380393,17.9294627 L36.6568503,17.9565257 C36.6568503,17.9565257 35.2225106,17.9294627 34.4647463,17.9294627 C33.7881709,17.9294627 32.8139025,17.9565257 32.8139025,17.9565257 L32.7868395,17.9294627 L32.7868395,17.6047065 C32.7868395,17.2518465 32.7597765,16.9562351 32.3808943,16.5232269 L29.3768999,12.7874903 C28.9709547,12.2451892 28.5379465,12.1119559 27.9425602,12.1119559 L27.9425602,16.1224862 L27.9425602,16.1224862 Z M42.5326467,16.1224862 C42.5326467,16.7178724 42.8032768,17.0696916 43.6692932,17.1508806 L44.2376165,17.2060475 C44.3188055,17.2060475 44.3999945,17.2591327 44.3999945,17.3673847 L44.3999945,17.935708 L44.3729315,17.9908749 C44.3729315,17.9908749 42.3161426,17.935708 41.4771892,17.935708 C40.7194248,17.935708 38.6085098,17.9908749 38.6085098,17.9908749 L38.5543838,17.935708 L38.5543838,17.3673847 C38.5543838,17.2591327 38.6355729,17.2060475 38.7438249,17.2060475 L39.2850852,17.1508806 C40.1781646,17.0696916 40.4487947,16.6366834 40.4487947,16.1224862 L40.4487947,7.11050295 C40.4487947,6.51719844 40.1240386,6.35169771 39.2850852,6.27259044 L38.7438249,6.21638265 C38.6355729,6.21638265 38.5543838,6.19140141 38.5543838,6.1081306 L38.5543838,5.48464042 L38.5814468,5.4305144 C38.5814468,5.4305144 40.7194248,5.48464042 41.5583782,5.48464042 C42.2890796,5.48464042 44.3729315,5.4305144 44.3729315,5.4305144 L44.3999945,5.48464042 L44.3999945,6.0800267 C44.3999945,6.16121574 44.3458685,6.21534176 44.2376165,6.21534176 L43.6692932,6.27050867 C42.8303398,6.35065683 42.5326467,6.56820181 42.5326467,7.11050295 L42.5326467,16.1224862 Z M48.3803392,7.16358809 C48.3803392,6.3246347 48.02852,6.29757169 46.7565584,6.21638265 C46.5941803,6.21638265 46.5671173,6.1362345 46.5671173,6.08106759 L46.5671173,5.4586183 L46.6212434,5.43155528 C47.0271885,5.43155528 48.6239063,5.48568131 49.4087337,5.48568131 C50.166498,5.48568131 51.2490185,5.43155528 52.25035,5.43155528 C56.091216,5.43155528 56.7948543,7.32492528 56.7948543,8.73428371 C56.7948543,10.3591054 56.010027,12.9019877 52.1691609,12.9019877 C51.4925856,12.9019877 50.9513254,12.8468207 50.4631503,12.6313575 L50.4631503,16.2557195 C50.4631503,16.8500648 50.7879064,16.9874617 51.6549637,17.1217359 L52.1972648,17.2029249 C52.3055169,17.228947 52.3877468,17.2580918 52.3877468,17.3642621 L52.3877468,17.9325853 L52.3627656,17.9877523 C52.3627656,17.9877523 50.1966837,17.9325853 49.3577303,17.9325853 C48.5999659,17.9325853 46.57024,17.9877523 46.57024,17.9877523 L46.543177,17.9325853 L46.543177,17.3642621 C46.543177,17.25601 46.597303,17.228947 46.705555,17.2029249 L47.2738783,17.1217359 C48.1128317,17.0134838 48.3834618,16.7699167 48.3834618,16.2557195 L48.3803392,7.16358809 L48.3803392,7.16358809 L48.3803392,7.16358809 Z M50.4641911,11.8735932 C51.0054514,12.0911382 51.6820267,12.1171603 52.223287,12.1171603 C53.8481086,12.1171603 54.6298133,11.1408101 54.6298133,9.05903986 C54.6298133,6.73162077 53.5743558,6.21742353 52.0879719,6.21742353 C50.7879064,6.21742353 50.4631503,6.46099065 50.4631503,7.16462898 L50.4641911,11.8735932 L50.4641911,11.8735932 Z M66.9351572,17.2060475 L67.5576065,17.1508806 C68.3705378,17.0696916 68.6411679,16.8261245 68.6411679,15.988212 L68.6411679,7.05741781 C68.6411679,6.35169771 68.449645,6.35169771 67.5576065,6.27259044 L66.964302,6.21638265 C66.8560499,6.21638265 66.7727791,6.16225662 66.7727791,6.08106759 L66.7727791,5.48568131 L66.7988013,5.43155528 C66.7988013,5.43155528 69.1813872,5.48568131 69.6695624,5.48568131 C70.1816778,5.48568131 72.5382417,5.43155528 73.24188,5.43155528 C77.7614031,5.43155528 79.9816111,8.2461086 79.9816111,11.8454893 C79.9816111,16.5825574 76.6247566,17.9877523 73.622844,17.9877523 C71.457803,17.9877523 70.5116384,17.9325853 69.672685,17.9325853 C68.8597538,17.9325853 66.8019239,17.9877523 66.8019239,17.9877523 L66.7759018,17.9325853 L66.7759018,17.3642621 C66.7727791,17.2872366 66.827946,17.2060475 66.9351572,17.2060475 Z M72.9712499,17.2060475 C75.9471404,17.2060475 77.627129,16.0985458 77.627129,12.3066014 C77.627129,9.49308895 77.0036388,6.21638265 72.4570527,6.21638265 C71.4015952,6.21638265 70.7250199,6.37876073 70.7250199,7.05741781 L70.7250199,15.988212 C70.7250199,16.7438946 70.9134201,17.2060475 72.9712499,17.2060475 Z M86.1249149,16.1224862 C86.1249149,16.7178724 86.3955451,17.0696916 87.2615615,17.1508806 L87.8298847,17.2060475 C87.9110738,17.2060475 87.9922628,17.2591327 87.9922628,17.3673847 L87.9922628,17.935708 L87.9651998,17.9908749 C87.9651998,17.9908749 85.9084108,17.935708 85.0704983,17.935708 C84.3116931,17.935708 82.201819,17.9908749 82.201819,17.9908749 L82.1466521,17.935708 L82.1466521,17.3673847 C82.1466521,17.2591327 82.2278411,17.2060475 82.3360932,17.2060475 L82.8783943,17.1508806 C83.7704328,17.0696916 84.0421038,16.6366834 84.0421038,16.1224862 L84.0421038,7.11050295 C84.0421038,6.51719844 83.7163068,6.35169771 82.8783943,6.27259044 L82.3360932,6.21638265 C82.2278411,6.21638265 82.1466521,6.19140141 82.1466521,6.1081306 L82.1466521,5.48464042 L82.1737151,5.4305144 C82.1737151,5.4305144 84.3116931,5.48464042 85.1485647,5.48464042 C85.8782252,5.48464042 87.9641589,5.4305144 87.9641589,5.4305144 L87.9891401,5.48464042 L87.9891401,6.0800267 C87.9891401,6.16121574 87.9329323,6.21534176 87.8267621,6.21534176 L87.2584388,6.27050867 C86.4184445,6.35065683 86.1217923,6.56820181 86.1217923,7.11050295 L86.1249149,16.1224862 L86.1249149,16.1224862 L86.1249149,16.1224862 Z M111.150395,0.126163922 C111.527195,0.126163922 111.663551,0.397834933 111.879014,0.939095186 L117.426932,15.607248 C117.806855,16.6637464 118.349156,17.0686507 119.431677,17.1769028 L119.728329,17.2029249 C119.864685,17.2029249 120,17.283073 120,17.4204699 L120,17.9325853 L119.918811,17.9877523 C119.918811,17.9877523 118.012224,17.9372782 116.921835,17.9328891 L116.778461,17.9325853 C115.831255,17.9325853 113.178039,17.9877523 113.178039,17.9877523 L113.153058,17.9325853 L113.153058,17.4204699 C113.153058,17.283073 113.207184,17.2029249 113.345622,17.2029249 L114.103386,17.147758 C115.130739,17.0676098 115.511703,16.7407719 115.240032,15.9850893 L113.589189,11.4093584 L107.958,11.4093584 C107.308488,11.4093584 107.14611,11.5176105 107.011836,11.8673479 L105.44114,15.7925256 C105.17051,16.4732644 105.522329,17.0696916 106.523661,17.1508806 L107.308488,17.2060475 C107.41674,17.2060475 107.524992,17.2872366 107.524992,17.4215108 L107.524992,17.935708 L107.470866,17.9908749 C107.470866,17.9908749 104.520998,17.935708 103.871485,17.935708 C103.166806,17.935708 101.434773,17.9908749 101.434773,17.9908749 L101.379606,17.935708 L101.379606,17.4215108 C101.379606,17.2872366 101.460795,17.2060475 101.597151,17.2060475 C102.788965,17.1248585 103.463458,16.9073135 104.221223,15.1752807 L110.228171,1.10147326 C110.524823,0.397834933 110.742368,0.126163922 111.150395,0.126163922 Z M94.6839778,5.44151655 C94.7467224,5.51160976 94.778105,5.6179674 94.778105,5.76056865 C94.778105,5.90318032 94.7467224,6.00952755 94.6839778,6.07961035 C94.0997706,6.08412779 93.7297047,6.11088894 93.5737906,6.15985218 C93.4178556,6.20885705 93.4671935,6.42704739 93.7217732,6.81440237 L96.3615619,11.1070958 C96.4493189,11.2646129 96.5247935,11.3508086 96.5879856,11.3657245 C96.6511778,11.38063 96.7276932,11.3072996 96.8175633,11.1457647 L99.3067359,6.81440237 C99.5277574,6.43126297 99.5380414,6.21431129 99.3375877,6.16348487 C99.1371237,6.11268968 98.7991379,6.08475232 98.3236199,6.07961035 C98.2608545,6.01033944 98.2294823,5.90721896 98.2294927,5.77023848 C98.2294823,5.63327882 98.2608545,5.53015833 98.3236199,5.4608562 C98.7389018,5.47013048 99.1006094,5.47576167 99.4087114,5.47777058 C99.716803,5.47980031 99.9895982,5.48059138 100.227107,5.48018544 L100.479852,5.48019083 C100.654452,5.47992637 100.841261,5.47912373 101.040278,5.47777058 C101.338773,5.47576167 101.646427,5.47013048 101.963252,5.4608562 C102.025996,5.53015833 102.057389,5.63327882 102.057389,5.77023848 C102.057389,5.90721896 102.025996,6.01033944 101.963252,6.07961035 C101.51513,6.09420356 101.168859,6.13997127 100.924438,6.21689268 C100.680007,6.29385573 100.421066,6.56393418 100.147615,7.02710724 L97.4764643,11.4938262 C97.2763438,11.8079341 97.1625126,12.013613 97.1349812,12.1108942 C97.1074394,12.2081857 97.0992476,12.4298422 97.1104059,12.7758324 L97.1104059,15.593144 C97.090348,16.3649916 97.2193449,16.8516366 97.4973757,17.0530478 C97.7753961,17.2544799 98.3227352,17.3543737 99.1394032,17.3527707 C99.2021373,17.4228639 99.23352,17.5292111 99.2335304,17.6718228 C99.23352,17.8144345 99.2021373,17.9207817 99.1394032,17.9908749 C98.6312743,17.9808096 98.1571408,17.9719308 97.7170129,17.9642907 C97.2768642,17.9566298 96.7818193,17.9525912 96.2318676,17.952206 L95.901999,17.9528753 C95.4713786,17.9543515 95.077576,17.958162 94.7205857,17.9642907 C94.2743375,17.9719308 93.8019526,17.9808096 93.3034311,17.9908749 C93.2406657,17.9207817 93.2092934,17.8144345 93.2092934,17.6718228 C93.2092934,17.5292111 93.2406657,17.4228639 93.3034311,17.3527707 C94.1200783,17.3543737 94.6674173,17.2544799 94.9454481,17.0530478 C95.2234685,16.8516366 95.3524654,16.3649916 95.332418,15.593144 L95.3320345,12.7864997 C95.3269481,12.5374101 95.2996249,12.3558769 95.2500528,12.2419 C95.1905662,12.1051381 95.0716034,11.9073387 94.8931541,11.6485226 L92.1466955,7.37516881 C91.7483904,6.74616194 91.4253829,6.37217192 91.1776939,6.25315712 C90.9299945,6.13417354 90.5996696,6.07632115 90.1867296,6.07961035 C90.1231003,6.00952755 90.0882411,5.90318032 90.0821415,5.76056865 C90.0760419,5.6179674 90.1039272,5.51160976 90.1658078,5.44151655 C90.4782607,5.45159232 90.8103239,5.46046066 91.1620077,5.46810076 C91.5136708,5.47576167 91.8928028,5.47980031 92.2993933,5.48018544 C92.7125102,5.47980031 93.1099409,5.47576167 93.4916856,5.46810076 C93.8734198,5.46046066 94.2708609,5.45159232 94.6839778,5.44151655 Z M110.528986,3.05001017 L110.47486,3.05001017 L107.768559,9.92401538 C107.660307,10.1967273 107.848707,10.2758345 108.444094,10.2758345 L113.154099,10.2758345 L110.528986,3.05001017 Z M62.7507991,16.1224862 C62.7507991,16.7178724 63.0214292,17.0696916 63.8874456,17.1508806 L64.4557689,17.2060475 C64.5369579,17.2060475 64.618147,17.2591327 64.618147,17.3673847 L64.618147,17.935708 L64.591084,17.9908749 C64.591084,17.9908749 62.534295,17.935708 61.6963825,17.935708 C60.9375772,17.935708 58.8277031,17.9908749 58.8277031,17.9908749 L58.7725362,17.935708 L58.7725362,17.3673847 C58.7725362,17.2591327 58.8537253,17.2060475 58.9619773,17.2060475 L59.5042785,17.1508806 C60.396317,17.0696916 60.667988,16.6366834 60.667988,16.1224862 L60.667988,7.11050295 C60.667988,6.51719844 60.342191,6.35169771 59.5042785,6.27259044 L58.9619773,6.21638265 C58.8537253,6.21638265 58.7725362,6.19140141 58.7725362,6.1081306 L58.7725362,5.48464042 L58.7995992,5.4305144 C58.7995992,5.4305144 60.9375772,5.48464042 61.7744489,5.48464042 C62.5041093,5.48464042 64.5900431,5.4305144 64.5900431,5.4305144 L64.6150243,5.48464042 L64.6150243,6.0800267 C64.6150243,6.16121574 64.5588165,6.21534176 64.4526462,6.21534176 L63.884323,6.27050867 C63.0443287,6.35065683 62.7476764,6.56820181 62.7476764,7.11050295 L62.7507991,16.1224862 L62.7507991,16.1224862 L62.7507991,16.1224862 Z" id="rmy-wordmark" fill="#000000" fill-rule="nonzero"></path>
    </g>
</svg>

<svg xmlns="http://www.w3.org/2000/svg" width="120" height="19"><path fill="#000" fill-rule="nonzero" d="M17.707 0c.09.09.135.246.135.47 0 .215-.045.362-.135.443a3.29 3.29 0 0 0-.94.255 3.478 3.478 0 0 0-.644.349c-.152.107-.308.3-.47.577-.16.269-.273.47-.335.604l-.058.145-.25.62L9.316 17.48c-.161.42-.38.636-.658.645-.26 0-.47-.215-.63-.645L2.603 3.41c-.42-1.073-.751-1.74-.993-2C1.378 1.142.886.977.134.914.044.823 0 .67 0 .456 0 .242.036.09.107 0 1.653.032 2.58.05 2.885.053h.082c.492 0 1.602-.017 3.33-.053.07.09.107.246.107.47 0 .215-.036.362-.108.443-.922.098-1.468.286-1.638.564-.17.268-.09.81.242 1.624l4.377 11.197h.134l4.336-11.022c.35-.752.43-1.316.242-1.692-.18-.376-.743-.6-1.692-.671-.071-.072-.112-.22-.12-.443 0-.224.04-.38.12-.47 1.536.032 2.495.05 2.877.053h.117c.143 0 .949-.017 2.416-.053Zm1.158 5.484h.117c.73 0 2.814-.053 2.814-.053l.027.054v.595c0 .081-.054.135-.162.135l-.569.056c-.838.08-1.136.297-1.136.84v9.011c0 .596.27.948 1.136 1.029l.569.055c.081 0 .162.053.162.161v.569l-.027.055s-2.057-.055-2.896-.055c-.757 0-2.868.055-2.868.055l-.054-.055v-.569c0-.108.08-.161.189-.161l.541-.055c.893-.081 1.164-.514 1.164-1.029V7.111c0-.594-.326-.76-1.164-.838l-.541-.057c-.108 0-.19-.025-.19-.108v-.623l.028-.054s1.956.049 2.86.053Zm9.078 10.638c0 .596.351.894 1.136 1.029l.298.055c.081.026.162.053.162.161v.569l-.027.055s-1.705-.055-2.517-.055c-.757 0-2.977.055-2.977.055l-.054-.055v-.569c0-.108.081-.161.19-.161l.541-.055c.812-.081 1.164-.514 1.164-1.029V7.111c0-.594-.298-.76-1.164-.838l-.541-.057c-.109 0-.19-.025-.19-.108v-.623l.027-.054s2.22.054 3.058.054c.76 0 2.463-.054 2.463-.054l.027.054v.595c0 .081-.054.108-.162.135l-.298.056c-.839.16-1.136.297-1.136.84v4.087c.893 0 1.407-.458 2.598-1.732 1.082-1.193 1.921-2.19 1.921-2.707 0-.218-.243-.46-.785-.543-.108-.025-.162-.054-.162-.135v-.624l.027-.025s2.192.054 2.977.054c.704 0 1.894-.054 1.894-.054l.081.025v.624c0 .081-.08.135-.216.135-1.055.082-1.786.136-2.76 1.245l-2.328 2.677c-.46.49-.622.785-.622 1.003 0 .162.108.296.243.459l4.087 4.925c.325.378.974.542 1.515.649l.136.026c.08.026.189.08.189.161v.568l-.081.028s-1.434-.028-2.192-.028c-.677 0-1.651.028-1.651.028l-.027-.028v-.324c0-.353-.027-.649-.406-1.082l-3.004-3.736c-.406-.542-.84-.675-1.434-.675v4.01Zm14.59 0c0 .596.27.948 1.136 1.029l.569.055c.08 0 .162.053.162.161v.569l-.027.055s-2.057-.055-2.896-.055c-.758 0-2.868.055-2.868.055l-.055-.055v-.569c0-.108.082-.161.19-.161l.541-.055c.893-.081 1.164-.514 1.164-1.029V7.111c0-.594-.325-.76-1.164-.838l-.541-.057c-.108 0-.19-.025-.19-.108v-.623l.027-.054s2.138.054 2.977.054c.731 0 2.815-.054 2.815-.054l.027.054v.595c0 .081-.054.135-.162.135l-.569.056c-.839.08-1.136.297-1.136.84v9.011Zm5.847-8.958c0-.84-.351-.866-1.623-.948-.163 0-.19-.08-.19-.135V5.46l.054-.027c.406 0 2.003.054 2.788.054.757 0 1.84-.054 2.841-.054 3.841 0 4.545 1.893 4.545 3.302 0 1.625-.785 4.168-4.626 4.168-.676 0-1.218-.055-1.706-.27v3.624c0 .594.325.731 1.192.866l.542.08c.109.027.19.056.19.162v.569l-.024.055s-2.166-.055-3.005-.055c-.758 0-2.788.055-2.788.055l-.027-.055v-.569c0-.108.054-.135.163-.161l.568-.081c.839-.109 1.11-.352 1.11-.866l-.004-9.092Zm2.084 4.71c.541.217 1.218.243 1.76.243 1.624 0 2.406-.976 2.406-3.058 0-2.327-1.056-2.842-2.542-2.842-1.3 0-1.625.244-1.625.948l.001 4.709Zm16.471 5.332.623-.055c.813-.081 1.083-.325 1.083-1.163v-8.93c0-.706-.191-.706-1.083-.785l-.594-.057c-.108 0-.191-.054-.191-.135v-.595l.026-.054s2.382.054 2.87.054c.513 0 2.87-.054 3.573-.054 4.52 0 6.74 2.814 6.74 6.413 0 4.738-3.357 6.143-6.36 6.143-2.164 0-3.11-.055-3.95-.055-.812 0-2.87.055-2.87.055l-.026-.055v-.569a.151.151 0 0 1 .16-.158Zm6.036 0c2.976 0 4.656-1.107 4.656-4.9 0-2.813-.623-6.09-5.17-6.09-1.055 0-1.732.163-1.732.841v8.931c0 .756.188 1.218 2.246 1.218Zm13.154-1.084c0 .596.27.948 1.137 1.029l.568.055c.081 0 .162.053.162.161v.569l-.027.055s-2.057-.055-2.895-.055c-.758 0-2.868.055-2.868.055l-.055-.055v-.569c0-.108.08-.161.19-.161l.541-.055c.892-.081 1.164-.514 1.164-1.029V7.111c0-.594-.326-.76-1.164-.838l-.542-.057c-.108 0-.19-.025-.19-.108v-.623l.028-.054s2.138.054 2.975.054c.73 0 2.815-.054 2.815-.054l.025.054v.595c0 .081-.056.135-.162.135l-.569.056c-.84.08-1.136.297-1.136.84l.003 9.011ZM111.15.126c.377 0 .514.272.729.813l5.548 14.668c.38 1.057.922 1.462 2.005 1.57l.296.026c.137 0 .272.08.272.217v.513l-.081.055s-1.907-.05-2.997-.055h-.144c-.947 0-3.6.055-3.6.055l-.025-.055v-.513c0-.137.054-.217.193-.217l.757-.055c1.028-.08 1.409-.407 1.137-1.163l-1.65-4.576h-5.632c-.65 0-.812.109-.946.458l-1.57 3.926c-.271.68.08 1.277 1.082 1.358l.784.055c.109 0 .217.081.217.216v.514l-.054.055s-2.95-.055-3.6-.055c-.704 0-2.436.055-2.436.055l-.055-.055v-.514c0-.135.08-.216.217-.216 1.192-.081 1.866-.299 2.624-2.03L110.228 1.1c.297-.703.514-.975.922-.975ZM94.684 5.442c.063.07.094.176.094.319 0 .142-.031.249-.094.319-.584.004-.954.03-1.11.08-.156.049-.107.267.148.654l2.64 4.293c.087.158.163.244.226.259.063.015.14-.059.23-.22l2.489-4.332c.22-.383.231-.6.03-.65-.2-.051-.538-.08-1.013-.084-.063-.07-.095-.173-.095-.31s.032-.24.095-.31a69.793 69.793 0 0 0 1.903.02h.253c.174 0 .361 0 .56-.002.299-.002.606-.008.923-.017.063.07.094.172.094.31 0 .136-.031.24-.094.309-.448.014-.794.06-1.039.137-.244.077-.503.347-.776.81l-2.672 4.467c-.2.314-.313.52-.341.617-.028.097-.036.319-.025.665v2.817c-.02.772.11 1.259.387 1.46.278.201.826.301 1.642.3.063.07.095.176.095.319 0 .142-.032.249-.095.319-.508-.01-.982-.02-1.422-.027-.44-.007-.935-.011-1.485-.012h-.33c-.43.002-.824.006-1.181.012l-1.418.027c-.062-.07-.094-.177-.094-.32 0-.142.032-.248.094-.318.817.001 1.364-.099 1.642-.3.278-.201.407-.688.387-1.46v-2.807c-.005-.249-.032-.43-.082-.544a3.97 3.97 0 0 0-.357-.593l-2.746-4.274c-.399-.629-.722-1.003-.97-1.122-.247-.119-.577-.177-.99-.173-.064-.07-.099-.177-.105-.32-.006-.142.022-.248.084-.318.312.01.644.018.996.026a54.805 54.805 0 0 0 2.33 0l1.192-.026Zm15.845-2.392h-.054l-2.706 6.874c-.109.273.08.352.675.352h4.71L110.53 3.05ZM62.751 16.122c0 .596.27.948 1.136 1.029l.569.055c.081 0 .162.053.162.161v.569l-.027.055s-2.057-.055-2.895-.055c-.758 0-2.868.055-2.868.055l-.055-.055v-.569c0-.108.08-.161.189-.161l.542-.055c.892-.081 1.164-.514 1.164-1.029V7.111c0-.594-.326-.76-1.164-.838l-.542-.057c-.108 0-.19-.025-.19-.108v-.623l.028-.054s2.138.054 2.974.054c.73 0 2.816-.054 2.816-.054l.025.054v.595c0 .081-.056.135-.162.135l-.569.056c-.84.08-1.136.297-1.136.84l.003 9.011Z"/></svg>
